modules/boxicons-solid/icons/phone-outgoing.svg

<svg xmlns="http://www.w3.org/2000/svg" width="24" height="24" viewBox="0 0 24 24"><path d="M17.465 5.121l-5.172 5.172 1.414 1.414 5.172-5.172L21 8.656V3h-5.656zM14.3 13.994l-1.66 1.66c-.578-.109-1.734-.471-2.926-1.66-1.194-1.193-1.554-2.354-1.661-2.926l1.661-1.66.701-.701L5 3.293l-.7.701-1.001 1a.991.991 0 0 0-.291.649c-.014.25-.301 6.171 4.292 10.765 4.006 4.006 9.023 4.299 10.406 4.299.201 0 .326-.006.357-.008a.994.994 0 0 0 .65-.291l1-1 .697-.697-5.414-5.414-.696.697z"/></svg>

<svg xmlns="http://www.w3.org/2000/svg" width="24" height="24" viewBox="0 0 24 24" viewBox="0 0 24 24"><path d="M17.465 5.121L12.293 10.293 13.707 11.707 18.879 6.535 21 8.656 21 3 15.344 3zM14.3 13.994l-1.66 1.66c-.578-.109-1.734-.471-2.926-1.66-1.194-1.193-1.554-2.354-1.661-2.926l1.661-1.66.701-.701L5 3.293 4.3 3.994l-1.001 1C3.125 5.168 3.021 5.398 3.008 5.643 2.994 5.893 2.707 11.814 7.3 16.408c4.006 4.006 9.023 4.299 10.406 4.299.201 0 .326-.006.357-.008.246-.014.477-.117.65-.291l1-1 .697-.697-5.414-5.414L14.3 13.994z"/></svg>
